components/brave_wallet_ui/assets/svg-icons/unlock-wallet-icons/unlock-wallet-icon-dark.svg

<svg width="92" height="99" viewBox="0 0 92 99" fill="none" xmlns="http://www.w3.org/2000/svg">
<path opacity="0.1" d="M67.9565 40.601C68.238 42.0075 68.4245 72.7634 68.4245 85.9815C68.4245 86.9192 67.6749 87.67 66.8338 87.67C65.8976 87.67 65.2431 86.9192 65.2431 86.0768C65.148 69.0124 65.0565 42.9448 64.775 41.2561C64.5885 40.4137 65.148 39.5676 66.0841 39.3808C66.9289 39.0988 67.77 39.7549 67.9565 40.601ZM64.4934 32.349C60.1891 26.159 53.1676 22.408 45.5837 22.408C32.9454 22.408 22.743 32.6265 22.743 45.2848V66.2863C22.743 67.224 23.4927 67.8796 24.3337 67.8796C25.1748 67.8796 25.9245 67.1287 25.9245 66.2863V45.2876C25.9245 34.5046 34.723 25.6926 45.4886 25.6926C51.9466 25.6926 57.9405 28.8791 61.5897 34.2267C62.0578 34.9776 63.0891 35.1644 63.835 34.6955C64.7749 34.1278 64.9614 33.0986 64.4933 32.3477L64.4934 32.349ZM45.5837 29.9096C43.8064 29.9096 42.0255 30.1916 40.4347 30.8472C39.5936 31.1292 39.1256 32.0669 39.4034 32.9093C39.685 33.7517 40.6212 34.2205 41.4623 33.9422C42.7714 33.4734 44.1757 33.1914 45.5799 33.1914C52.2282 33.1914 57.5638 38.6305 57.5638 45.1942V45.2895C57.5638 45.6631 59.5313 78.5761 55.505 89.9236C55.2234 90.766 55.6001 91.7036 56.5363 91.9856C56.7228 92.0809 56.9093 92.0809 57.0995 92.0809C57.754 92.0809 58.4086 91.7073 58.5988 90.9564C62.8116 79.1402 61.0344 46.9825 60.9393 45.0115C60.8442 36.7558 54.0094 29.9106 45.5842 29.9106L45.5837 29.9096ZM33.5998 45.1942C33.5998 42.6633 34.3494 40.2239 35.8451 38.2571C36.4082 37.5063 36.2181 36.4771 35.4721 36.0082C34.7224 35.4442 33.6948 35.6346 33.2267 36.3818C31.3544 39.008 30.4182 42.103 30.4182 45.2895C30.4182 45.5716 30.9814 73.3234 24.0515 86.173C23.5834 86.9239 23.9565 87.953 24.7061 88.4219C24.9877 88.5171 25.2693 88.6087 25.4558 88.6087C26.0189 88.6087 26.5784 88.3266 26.86 87.7662C34.2543 74.0747 33.6949 46.3185 33.5998 45.1942ZM52.0414 68.5436C51.1052 68.5436 50.3555 69.1992 50.3555 70.1369C49.9825 80.2645 48.7648 87.67 46.9838 91.4206C46.6108 92.2631 46.8887 93.2007 47.7335 93.578C47.92 93.6732 48.2016 93.7648 48.4831 93.7648C49.1377 93.7648 49.7009 93.3912 49.9825 92.8271C52.0413 88.6077 53.2591 81.0108 53.7272 70.2279C53.6358 69.3854 52.9776 68.6352 52.0414 68.5436ZM45.5833 37.4108C41.3705 37.4108 37.9074 40.8793 37.9074 45.194C37.9074 45.5676 38.3755 78.5763 31.3543 88.9814C30.8862 89.7323 31.0727 90.7615 31.8223 91.2303C32.1039 91.4171 32.3855 91.5123 32.7585 91.5123C33.3217 91.5123 33.7898 91.2303 34.0676 90.7615C41.7435 79.5096 41.2754 46.4096 41.184 45.0988C41.184 42.6594 43.1515 40.6926 45.5833 40.6926C48.0188 40.6926 49.9825 42.6631 49.9825 45.0988V45.194C49.9825 45.2892 50.4506 52.882 50.4506 62.0717C50.4506 63.0094 51.2003 63.7602 52.0414 63.7602C52.9775 63.7602 53.6321 63.0094 53.6321 62.167C53.6321 53.2593 53.2591 45.7581 53.164 45.1027C53.3542 40.788 49.8912 37.4108 45.5833 37.4108ZM7.10482 28.2247C13.8482 13.2223 28.8268 3.37693 45.3015 3.28129C46.2377 3.28129 46.8922 2.53044 46.8922 1.59277C46.8922 0.655099 46.1426 -0.000488281 45.3015 -0.000488281C27.6098 0.0947396 11.4131 10.6869 4.11002 26.9092C3.73701 27.7516 4.11002 28.6892 4.95111 29.0665C5.13761 29.1618 5.41919 29.2533 5.6057 29.2533C6.16886 29.2533 6.82688 28.8804 7.10482 28.2247ZM51.5729 0.373635C50.6367 0.278407 49.8871 0.937688 49.7006 1.78011C49.5141 2.62254 50.2637 3.46863 51.1048 3.65542C72.0769 6.37676 87.8972 24.3794 87.8972 45.5713C87.8972 46.5089 88.6469 47.1645 89.488 47.1645C90.4242 47.1645 91.0787 46.4137 91.0787 45.5713C91.1738 22.7854 74.1356 3.37693 51.5729 0.373635ZM3.36014 45.4766C2.98714 40.693 3.82823 37.9753 4.85951 34.507L5.04602 33.7561C5.3276 32.9137 4.76444 31.9761 3.92336 31.694C3.08229 31.412 2.14614 31.9761 1.86454 32.8185L1.67803 33.5693C0.646748 37.2247 -0.289422 40.4149 0.0836417 45.7588C0.270146 48.4765 0.833308 50.6338 1.30141 52.6044C1.7695 54.575 2.1425 56.1682 2.05108 57.5747C1.956 58.5123 2.61424 59.2632 3.55045 59.3547H3.73695C4.57804 59.3547 5.23632 58.6991 5.32769 57.853C5.5142 55.8824 5.04611 53.9156 4.4866 51.7583C4.01851 49.9782 3.55028 47.9159 3.36014 45.4766ZM45.5833 7.50166C40.2479 7.50166 35.0036 8.62609 30.1365 10.7834C29.2954 11.157 28.9187 12.0947 29.2954 12.9408C29.6684 13.7832 30.6045 14.1605 31.4493 13.7832C35.9437 11.8126 40.6245 10.7835 45.4919 10.7835C64.5879 10.7835 80.2257 26.3504 80.2257 45.5722V53.729C80.2257 54.6667 80.9753 55.3223 81.8164 55.3223C82.6575 55.3223 83.4072 54.5715 83.4072 53.729V45.5722C83.5937 24.567 66.5516 7.50166 45.5833 7.50166ZM11.2268 47.1653L10.9452 45.29C9.16798 34.507 17.6849 22.5041 26.4875 16.5959C27.2372 16.1271 27.4237 15.0942 26.9556 14.3471C26.4875 13.5962 25.4562 13.4094 24.7103 13.8783C14.6904 20.4418 5.70134 33.5689 7.66917 45.7584L7.95075 47.729C9.54149 57.4787 10.4777 63.3868 6.82809 70.9837C6.45509 71.8261 6.73302 72.7637 7.57776 73.141C7.76426 73.2363 8.04584 73.3278 8.32743 73.3278C8.89059 73.3278 9.5452 72.9542 9.8268 72.3902C13.9408 63.856 12.9126 57.2919 11.2268 47.1653ZM59.3441 18.19C58.503 17.8164 57.5668 18.0947 57.1901 18.9408C56.8171 19.7832 57.095 20.7208 57.9398 21.1897C67.115 25.8779 72.9185 35.1588 72.9185 45.473V81.0081C72.9185 81.9457 73.6682 82.6013 74.5092 82.6013C75.3503 82.6013 76.1 81.8505 76.1 81.0081L76.1036 45.3811C76.0086 33.8508 69.6417 23.4427 59.3441 18.19ZM18.4344 45.1953C17.7798 39.1005 20.0251 32.9101 24.6146 27.7531C29.95 21.8451 37.8165 18.2809 45.5829 18.2809C47.9233 18.2809 50.1687 18.5629 52.4177 19.1233C53.2588 19.3101 54.1949 18.8413 54.3852 17.9036C54.5717 17.0612 54.1036 16.1236 53.1674 15.9331C50.6405 15.2774 48.1136 14.9954 45.4916 14.9954C36.7844 14.9954 27.9861 18.9328 22.0873 25.5918C16.8432 31.4045 14.4114 38.5323 15.066 45.6557V45.8425C19.6518 66.9396 11.1349 77.9092 11.0397 78.0049C10.4766 78.7557 10.5717 79.7849 11.3213 80.349C11.6029 80.631 11.9759 80.7226 12.3526 80.7226C12.8207 80.7226 13.2888 80.5358 13.6617 80.1585C14.1262 79.4187 23.3018 67.7936 18.4344 45.1953ZM81.9984 57.7617C81.0623 57.7617 80.4077 58.5125 80.4077 59.3549V70.7933C80.4077 71.731 81.1574 72.3866 81.9984 72.3866C82.8395 72.3866 83.5892 71.6357 83.5892 70.7933L83.5928 59.3549C83.5928 58.5088 82.8432 57.7617 81.9984 57.7617ZM23.3015 71.3576C22.3653 71.2624 21.6157 71.8264 21.4292 72.7641C21.1476 74.8262 19.7433 80.6389 17.4029 82.7051C16.7483 83.3607 16.6532 84.3936 17.3078 85.0492C17.5894 85.4228 18.0575 85.6133 18.5256 85.6133C18.8986 85.6133 19.2752 85.4265 19.6482 85.1444C23.2064 81.8626 24.5156 74.1748 24.7021 73.2372C24.8008 72.2959 24.2377 71.4492 23.3015 71.3576ZM47.2693 45.4766C47.1743 44.5389 46.4282 43.8833 45.5835 43.8833C44.6473 43.9785 43.9927 44.7257 43.9927 45.5718C43.9927 45.7586 45.024 65.7313 42.8701 79.1407C42.6836 80.0783 43.3382 80.9207 44.1792 81.016H44.4608C45.2105 81.016 45.9602 80.4519 46.0515 79.6095C48.392 66.0098 47.3607 46.3186 47.2693 45.4766ZM43.7111 83.5471C42.87 83.3603 41.9339 84.0159 41.8388 84.8583C41.1842 88.4221 38.9352 90.953 38.9352 90.953C38.2806 91.6087 38.372 92.6415 39.0303 93.2971C39.3118 93.5792 39.7799 93.766 40.1529 93.766C40.621 93.766 40.994 93.5792 41.3707 93.2019C41.4658 93.1067 44.2743 90.0154 45.1154 85.4187C45.2104 84.5762 44.6473 83.7339 43.7111 83.5471Z" fill="url(#paint0_linear_5353_390405)"/>
<rect x="35.4258" y="62.4888" width="19.6596" height="26.6809" fill="#252381"/>
<path fill-rule="evenodd" clip-rule="evenodd" d="M45.6085 33.0021C39.7791 33.0021 35.0318 37.7408 35.0318 43.5704V53.5616H26.6309V43.5704C26.6309 33.1069 35.145 24.5928 45.6085 24.5928C56.0719 24.5928 64.5861 33.1069 64.5861 43.5704V53.5616H56.1852V43.5704C56.1852 37.7405 51.4378 33.0021 45.6085 33.0021ZM25.0161 55.9708H66.1995C70.8425 55.9708 74.6004 59.7379 74.6004 64.3717V88.464C74.6004 93.1065 70.8422 96.8733 66.1995 96.8733H25.0161C20.3731 96.8733 16.6152 93.1067 16.6152 88.464V64.3717C16.6152 59.7376 20.3734 55.9708 25.0161 55.9708ZM49.4459 84.7002V77.8482C51.5416 76.5627 52.9317 74.2489 52.9317 71.624C52.9317 67.5851 49.6462 64.3087 45.6074 64.3087C41.5685 64.3087 38.283 67.5852 38.283 71.624C38.283 74.2489 39.6732 76.5627 41.7688 77.8482V84.7002C41.7688 86.8108 43.4789 88.5387 45.6074 88.5387C47.7359 88.5387 49.4459 86.8138 49.4459 84.7002Z" fill="url(#paint1_linear_5353_390405)"/>
<defs>
<linearGradient id="paint0_linear_5353_390405" x1="33.6797" y1="96.9111" x2="43.1033" y2="0.490067" gradientUnits="userSpaceOnUse">
<stop stop-color="#D7D7FF"/>
<stop offset="1" stop-color="#4D52FD"/>
</linearGradient>
<linearGradient id="paint1_linear_5353_390405" x1="45" y1="26.5" x2="3.07839" y2="87.583" gradientUnits="userSpaceOnUse">
<stop stop-color="#5B63D0"/>
<stop offset="1" stop-color="#35339F"/>
</linearGradient>
</defs>
</svg>

<svg xmlns="http://www.w3.org/2000/svg" fill="none" viewBox="0 0 92 99"><path fill="url(#a)" d="M67.957 40.601c.281 1.407.468 32.162.468 45.38 0 .938-.75 1.689-1.591 1.689-.936 0-1.59-.75-1.59-1.593-.096-17.065-.187-43.132-.469-44.82-.187-.843.373-1.69 1.31-1.876.844-.282 1.685.374 1.872 1.22m-3.464-8.252c-4.304-6.19-11.325-9.941-18.91-9.941-12.638 0-22.84 10.218-22.84 22.877v21.001c0 .938.75 1.594 1.59 1.594.842 0 1.592-.751 1.592-1.594V45.288c0-10.783 8.798-19.595 19.564-19.595 6.458 0 12.452 3.186 16.1 8.534.469.75 1.5.937 2.246.469.94-.568 1.126-1.597.658-2.348zm-18.91-2.44c-1.777 0-3.557.283-5.148.938a1.65 1.65 0 0 0-1.032 2.062 1.647 1.647 0 0 0 2.06 1.033c1.308-.469 2.713-.75 4.117-.75 6.648 0 11.984 5.438 11.984 12.002v.095c0 .374 1.967 33.287-2.059 44.635-.282.842.095 1.78 1.031 2.062.187.095.373.095.563.095.655 0 1.31-.374 1.5-1.125 4.213-11.816 2.435-43.973 2.34-45.945-.095-8.255-6.93-15.1-15.355-15.1zM33.6 45.195c0-2.53.75-4.97 2.245-6.937.563-.75.373-1.78-.373-2.249-.75-.564-1.777-.373-2.245.374-1.873 2.626-2.809 5.721-2.809 8.907 0 .283.563 28.034-6.366 40.884-.469.75-.096 1.78.654 2.249.282.095.563.187.75.187.563 0 1.122-.282 1.404-.843 7.394-13.691 6.835-41.448 6.74-42.572m18.441 23.35c-.936 0-1.685.655-1.685 1.593-.373 10.127-1.591 17.533-3.372 21.284-.373.842-.095 1.78.75 2.157.186.095.468.187.75.187.654 0 1.217-.374 1.499-.938 2.058-4.22 3.276-11.816 3.744-22.6-.091-.842-.75-1.592-1.686-1.683M45.583 37.41c-4.212 0-7.676 3.468-7.676 7.783 0 .374.469 33.382-6.553 43.787-.468.751-.281 1.78.468 2.25.282.186.564.281.936.281.564 0 1.032-.282 1.31-.75 7.676-11.252 7.207-44.352 7.116-45.663a4.4 4.4 0 0 1 4.4-4.406c2.435 0 4.398 1.97 4.398 4.406v.095c0 .095.469 7.688.469 16.878 0 .937.75 1.688 1.59 1.688.937 0 1.591-.75 1.591-1.593 0-8.908-.373-16.409-.468-17.064.19-4.315-3.273-7.692-7.58-7.692M7.105 28.225C13.848 13.222 28.827 3.377 45.302 3.28c.936 0 1.59-.75 1.59-1.688S46.142 0 45.302 0C27.61.095 11.412 10.687 4.11 26.91c-.373.842 0 1.78.841 2.157.187.095.468.186.655.186.563 0 1.22-.373 1.499-1.028M51.573.374C50.637.278 49.887.938 49.7 1.78c-.187.843.563 1.689 1.404 1.875C72.077 6.377 87.897 24.38 87.897 45.571c0 .938.75 1.593 1.591 1.593.936 0 1.59-.75 1.59-1.593C91.175 22.785 74.137 3.377 51.574.374M3.36 45.477c-.373-4.784.468-7.502 1.5-10.97l.186-.75c.282-.843-.282-1.78-1.123-2.063-.84-.282-1.777.282-2.058 1.125l-.187.75C.647 37.225-.289 40.415.084 45.76c.186 2.718.75 4.875 1.217 6.845.469 1.971.842 3.564.75 4.97-.095.938.563 1.69 1.5 1.78h.186c.841 0 1.5-.655 1.59-1.501.187-1.97-.28-3.937-.84-6.095-.468-1.78-.937-3.842-1.127-6.281M45.583 7.502a38.1 38.1 0 0 0-15.446 3.281c-.842.374-1.218 1.312-.842 2.158.373.842 1.31 1.22 2.154.842 4.495-1.97 9.175-3 14.043-3 19.096 0 34.734 15.567 34.734 34.79v8.156c0 .938.75 1.593 1.59 1.593s1.591-.75 1.591-1.593v-8.157c.187-21.005-16.855-38.07-37.824-38.07M11.227 47.165l-.282-1.875c-1.777-10.783 6.74-22.786 15.543-28.694.75-.469.936-1.502.468-2.249-.468-.75-1.5-.938-2.246-.469-10.02 6.564-19.009 19.69-17.04 31.88l.28 1.971c1.591 9.75 2.528 15.658-1.122 23.255-.373.842-.095 1.78.75 2.157.186.095.468.187.75.187.563 0 1.217-.374 1.499-.938 4.114-8.534 3.086-15.098 1.4-25.225M59.344 18.19c-.841-.374-1.777-.095-2.154.75-.373.843-.095 1.78.75 2.25 9.175 4.688 14.978 13.969 14.978 24.283v35.535c0 .938.75 1.593 1.591 1.593s1.591-.75 1.591-1.593l.004-35.627c-.095-11.53-6.462-21.938-16.76-27.191m-40.91 27.005c-.654-6.095 1.591-12.285 6.18-17.442 5.336-5.908 13.202-9.472 20.969-9.472 2.34 0 4.586.282 6.835.842.84.187 1.777-.282 1.967-1.22.187-.842-.281-1.78-1.218-1.97-2.526-.656-5.053-.938-7.675-.938-8.708 0-17.506 3.938-23.405 10.597-5.244 5.813-7.676 12.94-7.021 20.064v.187c4.586 21.097-3.931 32.066-4.026 32.162-.563.75-.468 1.78.281 2.344.282.282.655.374 1.032.374.468 0 .936-.187 1.309-.564.464-.74 9.64-12.365 4.772-34.964m63.564 12.567c-.936 0-1.59.75-1.59 1.593v11.438c0 .938.75 1.594 1.59 1.594s1.591-.751 1.591-1.594l.004-11.438c0-.846-.75-1.593-1.595-1.593M23.302 71.358c-.937-.096-1.686.468-1.873 1.406-.281 2.062-1.686 7.875-4.026 9.941-.655.656-.75 1.689-.095 2.344.281.374.75.564 1.218.564.373 0 .75-.186 1.122-.469 3.558-3.281 4.868-10.97 5.054-11.907.099-.941-.464-1.788-1.4-1.88m23.967-25.881c-.095-.938-.84-1.594-1.685-1.594-.937.095-1.591.843-1.591 1.689 0 .187 1.031 20.16-1.123 33.569-.186.937.468 1.78 1.31 1.875h.28c.75 0 1.5-.564 1.591-1.407 2.341-13.6 1.31-33.29 1.218-34.132m-3.558 38.07c-.841-.187-1.777.469-1.872 1.311-.655 3.564-2.904 6.095-2.904 6.095-.654.656-.563 1.688.095 2.344.282.282.75.469 1.123.469.468 0 .841-.187 1.218-.564.095-.095 2.903-3.187 3.744-7.783a1.725 1.725 0 0 0-1.404-1.872" opacity=".1"/><path fill="#252381" d="M35.426 62.489h19.66V89.17h-19.66z"/><path fill="url(#b)" fill-rule="evenodd" d="M45.609 33.002c-5.83 0-10.577 4.739-10.577 10.568v9.992H26.63V43.57c0-10.463 8.514-18.977 18.978-18.977 10.463 0 18.977 8.514 18.977 18.977v9.992h-8.4V43.57c0-5.83-4.748-10.568-10.577-10.568M25.016 55.971H66.2c4.642 0 8.4 3.767 8.4 8.4v24.093c0 4.642-3.758 8.41-8.4 8.41H25.016c-4.643 0-8.4-3.767-8.4-8.41V64.372c0-4.634 3.757-8.401 8.4-8.401m24.43 28.73v-6.853a7.3 7.3 0 0 0 3.486-6.224c0-4.039-3.286-7.315-7.325-7.315s-7.324 3.276-7.324 7.315a7.3 7.3 0 0 0 3.486 6.224V84.7a3.84 3.84 0 0 0 7.677 0" clip-rule="evenodd"/><defs><linearGradient id="a" x1="33.68" x2="43.103" y1="96.911" y2=".49" gradientUnits="userSpaceOnUse"><stop stop-color="#D7D7FF"/><stop offset="1" stop-color="#4D52FD"/></linearGradient><linearGradient id="b" x1="45" x2="3.078" y1="26.5" y2="87.583" gradientUnits="userSpaceOnUse"><stop stop-color="#5B63D0"/><stop offset="1" stop-color="#35339F"/></linearGradient></defs></svg>
